X:1
T:The Heroes Of Kohima  "CYMRU"
M:6/8
L:1/8
Q:80
C:Lance Bombardier Stewart
S:Slow Air
K:HP
|: A | \
{Gdc}d3/2f/2{g}d{gfg}f2d | \
{g}B/2{d}G3/2{d}B{gde}d3/2c/2B | \
{g}A2{GdGe}A{Gdc}d3/2e/2f |
{gfg}f3/2e/2{g}d{gef}e2A | | \
{Gdc}d3/2f/2{g}d{gfg}f2d | \
{g}B/2{d}G3/2{d}B{gde}d3/2c/2B |
{g}A3/2d/2f{gef}e3/2{g}c/2e | \
{Gdc}d3{gdc}d2 :: \
{gf}g |
{ag}a2{GdG}a{fg}f2d | \
{g}B/2{d}G3/2{d}B{gde}d3/2c/2B | \
{g}A2{GdGe}A{Gdc}d3/2e/2f |
{gfg}f3/2e/2{g}d{gef}e2{gf}g | | \
{ag}a2{GdG}a{fg}f2d | \
{g}B/2{d}G3/2{d}B{gde}d3/2c/2B |
{g}A3/2d/2f{gef}e3/2{g}c/2e | \
{Gdc}d3{gdc}d2 :|
